images/svg/site-logo.svg

<svg width="131" height="32" viewBox="0 0 131 32" fill="none" xmlns="http://www.w3.org/2000/svg">
<path d="M63.5684 7.39453C65.2279 7.39453 66.5598 7.9404 67.5642 9.03214C68.5686 10.1021 69.0708 11.5104 69.0708 13.2572V23.9999H64.6165V13.2572C64.6165 12.6458 64.4746 12.1654 64.1907 11.8161C63.9069 11.4449 63.5357 11.2593 63.0771 11.2593H61.6688C61.0574 11.2593 60.5225 11.4886 60.0639 11.9471C59.6054 12.3838 59.3215 12.9733 59.2124 13.7157V23.9999H54.7581V13.2899C54.7581 12.6786 54.6161 12.1873 54.3323 11.8161C54.0484 11.4449 53.6773 11.2593 53.2187 11.2593H51.9414C51.3082 11.2593 50.7514 11.5432 50.271 12.1109C49.7907 12.6786 49.485 13.421 49.354 14.338V23.9999H44.8997V7.65655H49.0264V9.55618C49.4195 8.90113 49.9217 8.3771 50.533 7.98407C51.1663 7.59105 51.7995 7.39453 52.4327 7.39453H54.2668C55.0528 7.39453 55.7625 7.60196 56.3957 8.01682C57.0507 8.43169 57.5638 9.01031 57.935 9.75269C58.4154 9.01031 58.9831 8.43169 59.6382 8.01682C60.315 7.60196 61.0247 7.39453 61.767 7.39453H63.5684ZM78.656 24.2619C77.2804 24.2619 76.0576 23.9999 74.9877 23.4759C73.9396 22.93 73.1208 22.1658 72.5313 21.1832C71.9636 20.2006 71.6797 19.0652 71.6797 17.777V13.945C71.6797 12.6567 71.9745 11.5213 72.564 10.5388C73.1536 9.53435 73.9724 8.75921 75.0205 8.21334C76.0904 7.66747 77.3131 7.39453 78.6887 7.39453H81.6364C83.012 7.39453 84.2238 7.66747 85.2719 8.21334C86.3418 8.75921 87.1715 9.53435 87.7611 10.5388C88.3506 11.5213 88.6454 12.6567 88.6454 13.945V17.777C88.6454 19.0652 88.3506 20.2006 87.7611 21.1832C87.1715 22.1658 86.3418 22.93 85.2719 23.4759C84.2238 23.9999 83.0011 24.2619 81.6037 24.2619H78.656ZM81.5382 20.4299C82.346 20.4299 82.9902 20.157 83.4705 19.6111C83.9509 19.0434 84.1911 18.3119 84.1911 17.4167V14.2398C84.1911 13.3445 83.9509 12.624 83.4705 12.0781C82.9902 11.5104 82.357 11.2266 81.5709 11.2266H78.7542C77.9682 11.2266 77.335 11.5104 76.8546 12.0781C76.3742 12.624 76.134 13.3445 76.134 14.2398V17.4167C76.134 18.3119 76.3742 19.0434 76.8546 19.6111C77.335 20.157 77.9572 20.4299 78.7215 20.4299H81.5382ZM94.8793 15.7136L88.8857 7.65655H93.864L97.4668 12.5039L101.07 7.65655H106.048L100.054 15.7136L106.244 23.9999H101.266L97.4668 18.8905L93.6675 23.9999H88.6892L94.8793 15.7136ZM112.422 24.2619C110.718 24.2619 109.343 23.8361 108.295 22.9846C107.247 22.133 106.723 21.0085 106.723 19.6111V18.3993C106.723 17.0237 107.269 15.921 108.36 15.0913C109.452 14.2398 110.893 13.814 112.684 13.814H114.681C115.249 13.814 115.861 13.8904 116.516 14.0432C117.171 14.1961 117.771 14.4035 118.317 14.6655V12.9624C118.317 12.4165 118.131 11.9799 117.76 11.6523C117.411 11.303 116.941 11.1283 116.352 11.1283H113.535C112.924 11.1283 112.432 11.2702 112.061 11.5541C111.69 11.8379 111.504 12.22 111.504 12.7004H107.181C107.181 11.1065 107.76 9.82912 108.917 8.86838C110.096 7.88582 111.635 7.39453 113.535 7.39453H116.352C118.273 7.39453 119.824 7.90765 121.003 8.93389C122.182 9.93829 122.771 11.2811 122.771 12.9624V23.9999H118.644V22.0348C118.12 22.7116 117.476 23.2575 116.712 23.6724C115.948 24.0654 115.195 24.2619 114.452 24.2619H112.422ZM114.78 20.8557C115.588 20.8557 116.308 20.6483 116.941 20.2334C117.575 19.8185 118.033 19.2617 118.317 18.563V18.0062C117.968 17.7442 117.476 17.5368 116.843 17.3839C116.232 17.2311 115.577 17.1547 114.878 17.1547H112.815C112.291 17.1547 111.865 17.2857 111.537 17.5477C111.21 17.8097 111.046 18.1591 111.046 18.5958V19.4473C111.046 19.8622 111.221 20.2006 111.57 20.4627C111.941 20.7247 112.422 20.8557 113.011 20.8557H114.78ZM128.077 24.3274C127.269 24.3274 126.614 24.0872 126.111 23.6069C125.631 23.1047 125.391 22.4496 125.391 21.6417C125.391 20.8338 125.631 20.1897 126.111 19.7094C126.614 19.2072 127.269 18.9561 128.077 18.9561C128.885 18.9561 129.529 19.2072 130.009 19.7094C130.511 20.1897 130.762 20.8338 130.762 21.6417C130.762 22.4496 130.511 23.1047 130.009 23.6069C129.529 24.0872 128.885 24.3274 128.077 24.3274Z" fill="#161513"/>
<path fill-rule="evenodd" clip-rule="evenodd" d="M17.1429 0H14.8571V10.1205L11.0659 0.736931L8.94666 1.59318L12.8361 11.2198L5.49442 3.87816L3.87818 5.49442L10.9148 12.5311L1.79586 8.5469L0.880734 10.6414L10.5297 14.8571H0V17.1429H10.5297L0.880738 21.3586L1.79586 23.4531L10.9148 19.469L3.87818 26.5056L5.49442 28.1218L12.8361 20.7802L8.94666 30.4069L11.0659 31.263L14.8571 21.8795V32H17.1429V21.8795L20.9341 31.263L23.0533 30.4069L19.164 20.7802L26.5056 28.1218L28.1218 26.5056L21.0851 19.469L30.2042 23.4531L31.1192 21.3586L21.4704 17.1429H32V14.8571H21.4702L31.1192 10.6414L30.2042 8.5469L21.0851 12.5311L28.1218 5.4944L26.5056 3.87816L19.164 11.2198L23.0533 1.59318L20.9341 0.736931L17.1429 10.1205V0Z" fill="#E94D35"/>
</svg>

<svg width="131" height="32" fill="none" xmlns="http://www.w3.org/2000/svg"><path d="M63.568 7.395c1.66 0 2.992.545 3.996 1.637 1.005 1.07 1.507 2.478 1.507 4.225V24h-4.454V13.257c0-.611-.142-1.092-.426-1.44a1.337 1.337 0 0 0-1.114-.558H61.67c-.612 0-1.146.23-1.605.688-.459.437-.742 1.026-.852 1.769V24h-4.454V13.29c0-.611-.142-1.103-.426-1.474a1.337 1.337 0 0 0-1.113-.557H51.94c-.633 0-1.19.284-1.67.852-.48.568-.786 1.31-.917 2.227V24H44.9V7.657h4.126v1.9a4.727 4.727 0 0 1 1.507-1.573c.633-.393 1.267-.59 1.9-.59h1.834a3.8 3.8 0 0 1 2.129.623c.655.415 1.168.993 1.539 1.736.48-.743 1.048-1.321 1.703-1.736.677-.415 1.387-.622 2.129-.622h1.801Zm15.088 16.867c-1.376 0-2.598-.262-3.668-.786a6.071 6.071 0 0 1-2.457-2.293c-.567-.982-.851-2.118-.851-3.406v-3.832c0-1.288.294-2.424.884-3.406a6.005 6.005 0 0 1 2.457-2.326c1.07-.546 2.292-.818 3.668-.818h2.947c1.376 0 2.588.272 3.636.818a5.958 5.958 0 0 1 2.49 2.326c.589.982.883 2.118.883 3.406v3.832c0 1.288-.294 2.424-.884 3.406-.59.983-1.42 1.747-2.49 2.293-1.047.524-2.27.786-3.667.786h-2.948Zm2.882-3.832c.808 0 1.452-.273 1.933-.819.48-.568.72-1.3.72-2.194V14.24c0-.896-.24-1.616-.72-2.162-.48-.568-1.114-.851-1.9-.851h-2.817c-.786 0-1.419.283-1.9.851-.48.546-.72 1.267-.72 2.162v3.177c0 .895.24 1.626.72 2.194.481.546 1.103.819 1.868.819h2.816Zm13.341-4.716-5.993-8.057h4.978l3.603 4.847 3.603-4.847h4.978l-5.994 8.057 6.19 8.286h-4.978l-3.8-5.11L93.669 24h-4.979l6.19-8.286Zm17.543 8.548c-1.704 0-3.079-.426-4.127-1.277-1.048-.852-1.572-1.976-1.572-3.374V18.4c0-1.375.546-2.478 1.637-3.308 1.092-.851 2.533-1.277 4.324-1.277h1.997c.568 0 1.18.076 1.835.23.655.152 1.255.36 1.801.621v-1.703c0-.546-.186-.982-.557-1.31-.349-.349-.819-.524-1.408-.524h-2.817c-.611 0-1.103.142-1.474.426-.371.284-.557.666-.557 1.146h-4.323c0-1.593.579-2.87 1.736-3.832 1.179-.982 2.718-1.473 4.618-1.473h2.817c1.921 0 3.472.513 4.651 1.539 1.179 1.004 1.768 2.347 1.768 4.028V24h-4.127v-1.965a6.09 6.09 0 0 1-1.932 1.637c-.764.393-1.517.59-2.26.59h-2.03Zm2.358-3.406c.808 0 1.528-.208 2.161-.623a3.55 3.55 0 0 0 1.376-1.67v-.557c-.349-.262-.841-.47-1.474-.622a8.08 8.08 0 0 0-1.965-.23h-2.063c-.524 0-.95.132-1.278.394-.327.262-.491.611-.491 1.048v.851c0 .415.175.754.524 1.016.371.262.852.393 1.441.393h1.769Zm13.297 3.471c-.808 0-1.463-.24-1.966-.72-.48-.502-.72-1.157-.72-1.965s.24-1.452.72-1.933c.503-.502 1.158-.753 1.966-.753s1.452.251 1.932.753c.502.48.753 1.125.753 1.933s-.251 1.463-.753 1.965c-.48.48-1.124.72-1.932.72Z" fill="#161513"/><path fill-rule="evenodd" clip-rule="evenodd" d="M17.143 0h-2.286v10.12L11.066.738l-2.12.856 3.89 9.627-7.342-7.342-1.616 1.616 7.037 7.037-9.12-3.984-.914 2.094 9.649 4.216H0v2.286h10.53L.88 21.359l.916 2.094 9.119-3.984-7.037 7.037 1.616 1.616 7.342-7.342-3.89 9.627 2.12.856 3.791-9.384V32h2.286V21.88l3.791 9.383 2.12-.856-3.89-9.627 7.342 7.342 1.616-1.616-7.037-7.037 9.12 3.984.914-2.094-9.649-4.216H32v-2.286H21.47l9.65-4.216-.916-2.094-9.119 3.984 7.037-7.037-1.616-1.616-7.342 7.342 3.89-9.627-2.12-.856-3.791 9.383V0Z" fill="#E94D35"/></svg>
